icons/4_Outdated/Twitch v1.svg

<svg width="1024" height="1024" viewBox="0 0 1024 1024" fill="none" xmlns="http://www.w3.org/2000/svg">
<g clip-path="url(#clip0_3_707)">
<path d="M512 1024C794.77 1024 1024 794.77 1024 512C1024 229.23 794.77 0 512 0C229.23 0 0 229.23 0 512C0 794.77 229.23 1024 512 1024Z" fill="#8C72BD"/>
<path d="M300.6 278L267.2 367.1V723.2H389.6V790H456.4L523.1 723.2H623.3L756.8 589.7V278H300.6ZM345.1 322.5H712.4V567.4L634.5 645.3H512L445.3 712V645.3H345.1V322.5ZM467.5 545.1H512V411.6H467.5V545.1ZM589.9 545.1H634.4V411.6H589.9V545.1Z" fill="white"/>
</g>
<defs>
<clipPath id="clip0_3_707">
<rect width="1024" height="1024" fill="white"/>
</clipPath>
</defs>
</svg>

<svg xmlns="http://www.w3.org/2000/svg" width="1024" height="1024" fill="none">
   <g clip-path="url(#a)">
      <path fill="#8C72BD" d="M512 1024c282.77 0 512-229.23 512-512S794.77 0 512 0 0 229.23 0 512s229.23 512 512 512Z"/>
      <path fill="#fff" d="m300.6 278-33.4 89.1v356.1h122.4V790h66.8l66.7-66.8h100.2l133.5-133.5V278H300.6Zm44.5 44.5h367.3v244.9l-77.9 77.9H512L445.3 712v-66.7H345.1V322.5Zm122.4 222.6H512V411.6h-44.5v133.5Zm122.4 0h44.5V411.6h-44.5v133.5Z"/>
   </g>
   <defs>
      <clipPath id="a">
         <path fill="#fff" d="M0 0h1024v1024H0z"/>
      </clipPath>
   </defs>
</svg>
